X:4
T:04 - Robin Hood & The Tanner
L:1/8
K:F
Q:1/4=200
R:
M:3/4
A2 | "Dm"F2 E2 D2 | A4 d2 | "F"A3 G F2 | "C"G4 A2| "Dm"F2 E2 D2 | D2 F2 G2 |
"Am"A6- | A2 A2 =B2 |c3 =B c2 | "Am/C"A2 =B2 c2 | "G"d2 =B2 A2 | G4 d2 |"Am"c3 A G2 |
"Dm/F"A2 F2 D2 | "C/E"D2 C4 | "Dm7"F3 G A2 |"Gm"B2 A2 G2 | "Dm/F"A2 F2 "C"E2 |"Dm"D6- | D2  z2 |]

